!!!COM: Hindemith, Paul
!!!OTL: Sonata for Two Pianos, Four Hands
!!!OMV: Movement 2: Allegro
!!!example: 655
!!!work: Hin-77
!!!OMD-full: Allegro
!!!OMD: [Allegro]
**kern	**kern	**dynam	**kern	**kern	**dynam
*grp:A	*grp:A	*grp:A	*grp:B	*grp:B	*grp:B
*part2	*part2	*part2	*part1	*part1	*part1
*staff4	*staff3	*	*staff2	*staff1	*
*I"Piano II	*	*	*I"Piano I	*	*
*I'Pno. II	*	*	*I'Pno. I	*	*
*ICklav	*ICklav	*	*ICklav	*ICklav	*
*Ipiano	*Ipiano	*	*Ipiano	*Ipiano	*
*clefF4	*clefG2	*	*clefF4	*clefG2	*
*k[]	*k[]	*	*k[]	*k[]	*
*C:	*C:	*	*C:	*C:	*
*M2/2	*M2/2	*	*M2/2	*M2/2	*
*met(c|)	*met(c|)	*	*met(c|)	*met(c|)	*
*	*8va	*	*	*	*
=154	=154	=154	=154	=154	=154
!	!	!	!	!LO:TX:t=[[half]=120]	!
!	!LO:TX:t=[[half]=120]	!	!	!	!LO:DY:ed=brack
2ryy	4ryy	4ryy	1r	8B 8f#X\	pp
.	.	.	.	8B 8b	.
.	8ryy	.	.	4r	.
.	8ryy	.	.	.	.
*clefG2	*	*	*	*	*
4ryy	2ryy	.	.	8f#XL 8b	pp
.	.	.	.	8Bn	.
8ryy	.	.	.	8dn 8b	.
8ryy	.	.	.	8BJ	.
=155	=155	=155	=155	=155	=155
2ryy	4ryy	.	8AAAL	8eL 8b	.
.	.	.	8AA	8BJ	.
.	8ryy	.	8CC#X	4r	.
.	8ryy	.	8FF#XJ	.	.
2ryy	4ryy	.	8BBBL	4r	.
.	.	.	8BBJ	.	.
.	4ryy	.	4r	8aL 8b	.
.	.	.	.	8BJ	.
=156	=156	=156	=156	=156	=156
2ryy	8ryy	.	4r	8eL 8b	.
.	8ryy	.	.	8B	.
.	8ryy	.	8AAAL	8fn 8b	.
.	8ryy	.	8AAJ	8BJ	.
8ryy	2ryy	.	8CC#XL	2r	.
8ryy	.	.	8FF#X	.	.
8ryy	.	.	8BBB	.	.
8ryy	.	.	8BBJ	.	.
=157	=157	=157	=157	=157	=157
2ryy	8ryy	.	4r	8g#XL 8b	.
.	8ryy	.	.	8B	.
.	8ryy	.	4r	8c#X 8b	.
.	8ryy	.	.	8BJ	.
2ryy	4ryy	4ryy	8AAAL	8dL 8b	<
.	.	.	8AA	8BJ	.
.	4ryy	.	8CC#X	4r	.
.	.	.	8FF#XJ	.	.
=158	=158	=158	=158	=158	=158
2ryy	8ryy	.	8BBBL	4r	.
.	8ryy	.	8BBJ	.	.
.	8ryy	.	4r	8gnL 8b	.
.	8ryy	4ryy	.	8BJ	[[
8ryy	2ryy	.	4r	8dL 8b	.
8ryy	.	.	.	8B	.
8ryy	.	.	8AAAL	8d#X 8b	.
8ryy	.	.	8AAJ	8BJ	.
=159	=159	=159	=159	=159	=159
4.ryy	8ryy	.	8CC#XL	2r	.
.	8ryy	.	8FF#X	.	.
.	8ryy	.	8BBB	.	.
8ryy	8ryy	.	8BBJ	.	.
4.ryy	4ryy	4ryy	4r	8c#XL 8b	>
.	.	.	.	8B	.
.	8ryy	.	4r	8d 8b	.
8ryy	8ryy	.	.	8BJ	.
=160	=160	=160	=160	=160	=160
4ryy	4ryy	.	8AAAL	8gL 8b	.
.	.	.	8AA	8BJ	.
8ryy	4ryy	.	8CC#X	4r	.
8ryy	.	.	8FF#XJ	.	.
2ryy	2ryy	4ryy	8BBBL	4r	]
.	.	.	8BB	.	.
.	.	.	8r	8eL 8b	.
.	.	.	8BBBJ	8BJ	.
*	*X8va	*	*	*	*
=	=	=	=	=	=
*-	*-	*-	*-	*-	*-
!!!system-decoration: [({(s1,s2)})][({(s3,s4)})]
!!!CDT: 1895/11/16-1963/12/28
!!!CBL: Hanau, Germany
!!!CDL: Frankfurt, Germany
!!!CNT: German
!!!AGN: Instrumental; Keyboard
!!!MCN:
!!!MDT: 1942/11/20
!!!MGN:
!!!MLC: New York, New York, United States of America
!!!MPD: 1942
!!!MPN: Dougherty, Celuis; Ruzicka, Vincenz
!!!ODT: 1942
!!!PDT: 1942
!!!excerpt-start-measure: 154
!!!excerpt-end-measure: 160
!!!excerpt-start-time: 2:46
!!!excerpt-end-time: 2:53
!!!excerpt-duration-sec: 7
!!!excerpt-time-signature: 2/2
!!!excerpt-tempo-beat: [half]
!!!excerpt-tempo-rate: [120]
!!!excerpt-meter-type: duple
!!!excerpt-beat-group: G2
!!!excerpt-beat-subgroup: G2
!!!experiment: 1
!!!EEV: 2020/07/28
!!!ONB: Converted from MusicXML on 2020/07/28
